img/svg/Prom.svg

<svg width="181" height="50" viewBox="0 0 181 50" fill="none" xmlns="http://www.w3.org/2000/svg">
<path fill-rule="evenodd" clip-rule="evenodd" d="M180.794 39.5005V19.9008C180.235 19.5469 180.702 19.8584 180.264 18.4039C180.088 17.8187 179.999 17.4682 179.763 16.9446C177.336 11.537 171.299 10.5674 166.486 12.2951C164.38 13.051 163.226 13.9334 162.151 15.6507C161.242 15.2589 160.762 11.8229 155.181 11.6579C149.398 11.4869 148.519 14.5722 147.616 15.0214L147.553 12.2397L140.251 12.1792C139.452 12.2204 139.433 12.2564 139.401 13.0466C139.391 13.3126 139.412 13.6824 139.414 13.9626C139.436 18.0909 139.208 39.0073 139.541 39.3855L139.973 39.5587C140.051 39.5732 140.312 39.5816 140.401 39.5834C141.638 39.6085 146.995 39.7475 147.346 39.4389C147.759 39.0756 147.534 27.4481 147.534 27.072C147.534 24.4499 147.155 19.0879 151.707 18.8694C156.378 18.6452 156.003 23.2796 156.003 27.2227C156.003 28.6838 155.653 39.1825 156.216 39.4304L156.547 39.5569C156.549 39.5573 163.747 39.7283 164.049 39.4027C164.439 38.7641 164.177 28.7581 164.177 27.0719C164.177 24.3812 163.753 19.0321 168.434 18.8687C173.316 18.6983 172.681 24.0001 172.681 27.0719C172.681 31.1403 172.571 35.3644 172.69 39.4127C174.377 39.7337 178.82 39.5005 180.794 39.5005H180.794ZM0 0H39.8674V39.8674H0V0ZM9.09555 9.06061H30.9205V30.8928H9.09555V9.06061ZM94.0144 14.9164C93.9105 15.273 93.8924 15.5249 93.5554 15.7206C93.0267 15.2345 93.3184 13.2833 93.32 12.3758L85.443 12.3749C85.402 15.4109 85.1673 38.51 85.5668 39.2822C86.4289 39.6195 91.8219 39.3881 93.2061 39.3624C93.5517 38.1993 93.1564 25.2272 93.3598 24.663C93.4881 24.3072 93.4605 24.4128 93.6716 24.2099C93.8481 22.3791 95.1626 20.7435 96.7541 20.0222C99.629 18.7189 100.103 19.4252 103.4 19.2606L103.324 11.7509C101.184 11.5179 99.375 11.5839 97.5624 12.2278C96.3791 12.6481 94.3005 13.8774 94.0145 14.9164H94.0144ZM113.038 26.9212C112.44 23.0589 115.279 19.4205 119.079 18.7521C124.393 17.8176 130.033 24.3955 125.589 30.3178C121.856 35.294 113.994 33.0911 113.038 26.9212ZM104.963 26.9212C105.289 29.1928 105.473 31.0796 106.637 32.8215C108.525 35.6458 109.556 36.7465 112.258 38.3579C116.618 40.9579 122.697 41.0189 127.149 38.7974C132.496 36.13 135.427 31.2523 135.258 24.8055C135.11 19.1687 130.66 14.2274 125.501 12.301C123.387 11.5115 121.759 11.3266 119.019 11.4103C113.531 11.5779 107.826 15.4572 105.911 20.4308C105.326 21.9509 104.674 24.903 104.963 26.9211V26.9212ZM64.3021 19.3379C73.0299 17.0206 77.1098 29.997 67.6266 32.5926C62.3931 34.0251 56.3093 27.5862 60.245 22.0853C61.2339 20.7032 62.5062 19.8147 64.3022 19.3378L64.3021 19.3379ZM59.5352 36.5884C59.9824 36.7104 60.3979 37.428 60.8008 37.822C61.9429 38.9388 64.3026 39.8774 65.9759 39.99C70.4171 40.2889 74.1543 39.1899 77.0151 36.2959C77.7019 35.6011 78.6056 34.5627 79.1279 33.5843C79.6881 32.5353 80.3296 31.4317 80.6617 30.1792C81.7624 26.0288 81.3472 21.769 79.2175 18.3684C77.6342 15.8404 77.0372 15.4121 75.0309 13.9437C71.2722 11.1928 64.8314 10.725 60.9293 13.7378C60.617 13.9789 60.5661 14.0528 60.3518 14.3475C59.9772 14.8629 60.2003 14.7575 59.5976 14.9375C59.5856 12.4408 59.9559 12.1955 58.6139 12.1746L55.5863 12.1905C54.2561 12.1905 52.8797 12.1579 51.5567 12.2005C51.209 13.8564 51.4714 19.5742 51.4714 21.6478C51.4714 25.4339 51.2992 48.2499 51.523 49.9496C53.2498 50.0485 55.1913 49.9674 56.9423 49.9679C60.1124 49.9688 59.5373 50.4938 59.5342 47.2619C59.5309 43.7742 59.4099 40.0459 59.5352 36.5884Z" fill="white"/>
</svg>

<svg width="181" height="50" fill="none" xmlns="http://www.w3.org/2000/svg"><path fill-rule="evenodd" clip-rule="evenodd" d="M180.794 39.5V19.9c-.559-.353-.092-.042-.53-1.496-.176-.585-.265-.936-.501-1.46-2.427-5.407-8.464-6.377-13.277-4.649-2.106.756-3.26 1.638-4.335 3.356-.909-.392-1.389-3.828-6.97-3.993-5.783-.171-6.662 2.914-7.565 3.363l-.063-2.781-7.302-.06c-.799.04-.818.076-.85.867-.01.266.011.635.013.916.022 4.128-.206 25.044.127 25.422l.432.174c.078.014.339.023.428.024 1.237.026 6.594.165 6.945-.144.413-.363.188-11.99.188-12.367 0-2.622-.379-7.984 4.173-8.203 4.671-.224 4.296 4.41 4.296 8.354 0 1.46-.35 11.96.213 12.207l.331.127c.002 0 7.2.171 7.502-.154.39-.639.128-10.645.128-12.331 0-2.69-.424-8.04 4.257-8.203 4.882-.17 4.247 5.131 4.247 8.203 0 4.068-.11 8.292.009 12.34 1.687.322 6.13.089 8.104.089zM0 0h39.867v39.867H0V0zm9.096 9.06H30.92v21.833H9.096V9.06zm84.918 5.856c-.103.357-.122.609-.459.805-.528-.486-.237-2.438-.235-3.345l-7.877-.001c-.041 3.036-.276 26.135.124 26.907.862.338 6.255.106 7.64.08.345-1.163-.05-14.135.153-14.699.128-.356.1-.25.312-.453.176-1.83 1.49-3.466 3.082-4.188 2.875-1.303 3.349-.597 6.646-.761l-.076-7.51c-2.14-.233-3.949-.167-5.762.477-1.183.42-3.261 1.65-3.547 2.688zm19.024 12.005c-.598-3.862 2.241-7.5 6.041-8.169 5.314-.934 10.954 5.643 6.51 11.566-3.733 4.976-11.595 2.773-12.551-3.397zm-8.075 0c.326 2.272.51 4.159 1.674 5.9 1.888 2.825 2.919 3.925 5.621 5.537 4.36 2.6 10.439 2.66 14.891.44 5.347-2.668 8.278-7.546 8.109-13.993-.148-5.636-4.598-10.578-9.757-12.504-2.114-.79-3.742-.974-6.482-.89-5.488.167-11.193 4.046-13.108 9.02-.585 1.52-1.237 4.472-.948 6.49zm-40.66-7.583c8.727-2.317 12.807 10.659 3.324 13.255-5.234 1.432-11.318-5.007-7.382-10.508.989-1.382 2.261-2.27 4.057-2.747zm-4.768 17.25c.447.122.863.84 1.266 1.234 1.142 1.117 3.502 2.055 5.175 2.168 4.441.299 8.178-.8 11.04-3.694.686-.695 1.59-1.733 2.112-2.712.56-1.049 1.202-2.152 1.534-3.405 1.1-4.15.685-8.41-1.445-11.81-1.583-2.529-2.18-2.957-4.186-4.425-3.759-2.751-10.2-3.219-14.102-.206-.312.24-.363.315-.577.61-.375.515-.152.41-.754.59-.012-2.497.358-2.743-.984-2.763l-3.028.015c-1.33 0-2.706-.032-4.03.01-.347 1.656-.085 7.374-.085 9.448 0 3.786-.172 26.602.052 28.302 1.727.098 3.668.017 5.42.018 3.17 0 2.594.526 2.591-2.706-.003-3.488-.124-7.216.001-10.674z" fill="#fff"/></svg>
